!!!!SEGMENT: pl-wnifc--13846--113_anonim--piesni-polskie-i-ruskie-ludu-galicyjskiego-113-dalas-mene-moja-maty-za-dunaj.krn
!!!kernsource:
!!!cenid: 18xx:3335
!!!COM: Anonim
!!!COM-rismid: pe30004985
!!!CDT:
!!!CNT:
!!!GTL: Pieśni polskie i ruskie ludu galicyjskiego
!!!OTL: 113. Dałaś mene moja maty za dunaj
!!!PDT: 1833
!!!AGN:
!!!SMS-siglum: PL-Wnifc
!!!SMS-shelfmark: 13846
!!!SMS-shelfwork: 113 G
!!!NIFC-rismid: 1001039608
!!!URL-scan: http://repozytorium.nifc.pl/skany/pl-wnifc-nut--13846
!!!ONB-nifc:
!!!key: g
!!!OMD: Allegretto
**kern	**kern	**dynam	**kern	**text
*part2	*part2	*part2	*part1	*part1
*staff3	*staff2	*	*staff1	*staff1
*I"FORTEPIAN.	*I"FORTEPIAN.	*	*I"GŁOS.	*
*Ipiano	*Ipiano	*	*Ivox	*
*ICklav	*ICklav	*	*ICvox	*
*IGacmp	*IGacmp	*	*IGsolo	*
*clefF4	*clefG2	*	*clefG2	*
*k[e-b-]	*k[e-b-]	*	*k[e-b-]	*
*g:	*g:	*	*g:	*
*M2/4	*M2/4	*	*M2/4	*
=1-	=1-	=1-	=1-	=1-
*tremolo	*	*	*	*
!	!	!LO:DY:b=2:rj	!LO:TX:a:t=E.157.	!
8G/ 8GG/L	16g/LL	f	16g/LL	Da-
.	16a/	.	16a/JJ	.
8G/ 8GG/	16b-\	.	16b-/LL	-łaś
.	16cc\JJ	.	16cc/JJ	.
8G/ 8GG/	8dd\L	[	8dd\	me-
8G/ 8GG/J	8dd\J	.	8dd\	-ne
=2	=2	=2	=2	=2
8G/ 8GG/L	8cc#X\L 8an\'	.	8cc#X\	mo-
8G/ 8GG/	8cc#\J 8a\'	.	8cc#\	-ja
!	!	!LO:DY:rj	!	!
8G/ 8GG/	8.dd\L 8.b-X\	f	8.dd\	ma-
8G/ 8GG/J	.	.	.	.
.	16ccn\Jk 16a\'	.	16ccn\	-ty
*Xtremolo	*	*	*	*
!!LO:LB:g=original
=3	=3	=3	=3	=3
*	*	*^	*	*
8G/L 8GG/	8b-\L 8g\|	.	.	8b-\	za
8G/ 8GG/	(16b-\L 16g\	.	.	(16b-\LL	du-
.	16dd\JJ 16b-\)	.	.	16dd\JJ)	.
!	!	!LO:DY:b=2:rj	!LO:DY:rj	!	!
8D/ 8DD/	8.cc\L 8.a\	f	f	(8.cc\L	-naj,
8D/J 8DD/	.	.	.	.	.
.	16a\Jk 16f#X\	.	.	16a\Jk)	.
=4	=4	=4	=4	=4	=4
8G/L 8GG/	8b-/L 8g/|	.	.	8b-/	za
8G/ 8GG/	8b-/ 8d/|	.	.	8b-/	du-
!	!	!LO:DY:b=2:rj	!LO:DY:rj	!	!
8D/ 8DD/	8a/ 8c/^	f	.	8.a/L	-naj,
8D/J 8DD/	8g/J 8B-/	.	.	.	.
.	.	.	.	16g/Jk	.
*	*	*v	*v	*	*
!!LO:LB:g=original
=5	=5	=5	=5	=5
*tremolo	*	*	*	*
8G/ 8GG/L	(16g\LL	.	(16g/LL	te-
.	16a\	.	16a/	.
8G/ 8GG/	16b-\)	.	16b-\JJ)	.
.	16cc\JJ	.	16cc/	-per
8G/ 8GG/	8dd\L 8b-\	.	8dd/	so-
8G/ 8GG/J	8dd\J 8b-\	.	8dd/	-bi,
=6	=6	=6	=6	=6
8G/ 8GG/L	8cc#X\L 8a\	.	8cc#X\	mo-
8G/ 8GG/	8cc#\J 8a\	.	8cc#\	-ja
8G/ 8GG/	8.dd\L 8.b-\	.	8.dd\	ma-
8G/ 8GG/J	.	.	.	.
.	16ccn\Jk 16a\	.	16ccn\	-ty,
*Xtremolo	*	*	*	*
!!LO:LB:g=original
=7	=7	=7	=7	=7
8G/L 8GG/	8b-\L 8g\|	.	8b-\	po-
8G/ 8GG/	(16b-\L 16g\	.	(16b-\LL	-du-
.	16dd\JJ 16b-\)	.	16dd\JJ)	.
8G/ 8GG/	8.cc\L 8.a\^	.	(8.cc\	.
8G/J 8GG/	.	.	.	.
.	16a\Jk 16f#X\	.	16a/)	-maj,
=8	=8	=8	=8	=8
.	8qg/	.	.	.
8G/L 8GG/	(16b-\LL	.	(16b-\LL	po-
.	16a/JJ)	.	16a/JJ)	.
8G/J 8GG/	8g/	.	8g/	-du-
!	!	!LO:DY:b=2:rj	!	!
8D/ 8DD/	8dd/ 8a/ 8f#X/;	ff	8dd\;	-maj
8r	8r	.	8r	.
!!LO:PB:g=original
=9	=9	=9	=9	=9
!	!	!LO:DY:b=2	!	!
(16B-\LL 16G\	8g/L|	mf	8g/	du-
16d\)	.	.	.	.
.	(8qb-/	.	(8qb-/	.
(16B-\ 16G\	8a/J)|	.	8a/)	-na-
16d\JJ)	.	.	.	.
!	!	!LO:DY:b=2:rj	!	!
(16c\LL 16D\	8g/L|	f	8g/	-ju
16d\)	.	.	.	.
(16c\ 16D\	8f#X/J|	.	8f#X/	ne
16d\JJ)	.	.	.	.
=10	=10	=10	=10	=10
(16B-\LL 16G\	8g/L|	.	8g/	pe-
16d\)	.	.	.	.
.	(8qb-/	.	.	.
(16B-\ 16G\	8a/J)^	.	8a/	-re-
16d\JJ)	.	.	.	.
!	!	!LO:DY:b=2:rj	!	!
(16c\LL 16D\	8g/L|	f	8g/	-bu-
16d\)	.	.	.	.
(16c\ 16D\	8f#X/J	.	8f#X/	-ty,
16d\JJ)	.	.	.	.
!!LO:LB:g=original
=11	=11	=11	=11	=11
(16B-\LL 16G\	8g/L	.	8g/	a-
16d\)	.	.	.	.
(16B-\ 16G\	8b-/J	.	8b-/	-ni
16d\JJ)	.	.	.	.
!	!	!LO:DY:rj	!	!
(16A\LL 16F#X\	8.dd/L 8.a/ 8.d/	f	(8.dd\L	pre-
16d\)	.	.	.	.
(16A\ 16F#\	.	.	.	.
16d\JJ)	16cc\Jk	.	16cc\Jk)	.
=12	=12	=12	=12	=12
16B-\LL 16G\	8b-\|	.	8b-\	-bru-
16d\	.	.	.	.
16B-\ 16G\	(16b-\LL	.	8b-\	-dy-
16d\JJ	32cc\L	.	.	.
.	32b-\JJJ)	.	.	.
16A\LL 16F#X\	8.a/^L	.	8.a/L	-ty,
16c\	.	.	.	.
16A\ 16F#\	.	.	.	.
16c\JJ	16g/Jk	.	16g/Jk	.
!!LO:LB:g=original
=13	=13	=13	=13	=13
(16B-\LL 16G\	8g/L|	.	8g/	ne
16d\)	.	.	.	.
.	(8qb-/	.	8qb-/	.
(16B-\ 16G\	8a/J)^	.	8a/	bu-
16d\JJ)	.	.	.	.
!	!	!LO:DY:b=2:rj	!	!
(16c\LL 16D\	8g/L|	f	8g/	-duż
16d\)	.	.	.	.
(16c\ 16D\	8f#X/J|	.	8f#X/	tia,
16d\JJ)	.	.	.	.
=14	=14	=14	=14	=14
(16B-\LL 16G\	8g/L|	.	8g/	mo-
16d\)	.	.	.	.
.	(8qb-/	.	(8qb-/	.
(16B-\ 16G\	8a/J)|	.	8a/)	-ja
16d\JJ)	.	.	.	.
!	!	!LO:DY:b=2:rj	!	!
(16c\LL 16D\	8g/L	f	8g/	ma-
16d\)	.	.	.	.
(16c\ 16D\	8f#X/J	.	8f#X/	-ty,
16d\JJ)	.	.	.	.
!!LO:LB:g=original
=15	=15	=15	=15	=15
(16B-\LL 16G\	8g\L	.	8g/	wo
16d\)	.	.	.	.
(16B-\ 16G\	8b-\J	.	8b-/	wi-
16d\JJ)	.	.	.	.
!	!LO:TX:t=P:problem:mixed beam	!	!	!
(16A\LL 16D\	8.dd\L	.	(8.dd\L	-ki
16c\)	.	.	.	.
(16A\ 16D\	.	.	.	.
16c\JJ)	16f#X/Jk	.	16f#X\Jk)	.
=16	=16	=16	=16	=16
8B-\L 8G\	8g/	.	8g/	wy-
8B-\ 8G\	8g/	.	8g/	-di-
8B-\J 8G\	8g/	.	8g/	-ty.
8r	8r	.	8r	.
==	==	==	==	==
*-	*-	*-	*-	*-
!!!system-decoration: s1{(s2,s3)}
!!!RDF**kern: | = vertical stroke
!!!ENC: Marta Lawrence
!!!END: 2021-11-11
